X:520
T: Galbally Farmer
T: Rakes of Kildare
S: "Roche Collection of Traditional Irish Music" [I/39/87]
N: First setting is relative of "Banish Misfortune"
L: 1/8
M: 6/8
R: jig
K: D
d/e/ | fed cAG | A2d cAG | F2D GED | DED DFA |
=c3 cAG | ABA Ade | fed cAG | Add d2 :|
e | f2d dfd | f2a agf | e2=c cdc | e2g gfe |
f2a agf |1 gfg efg | afd cAG | Add d2 :|2\
gfg bag | fed cAG | Add d2 ||
P: alternate setting [II/32/103]
K: Gdor
D | DGG GFG | Add d2e | fef ded | cAG F2D |
DGG GFG | Add d2e | fef dcA | G3 G2 :|
g | gdg gdg | gab a2g | fef ded | cAG FGA |
B2B cB/A/G | Add d2e | fed cAF | G3 G2 :|
